dbg/src/shared/assets/icons/age.svg

<svg width="16" height="17" viewBox="0 0 16 17" fill="none" xmlns="http://www.w3.org/2000/svg">
<g clip-path="url(#clip0_4_208)">
<path d="M13.3333 5.83325H2.66667C2.29848 5.83325 2 6.13173 2 6.49992V7.83325C2 8.20144 2.29848 8.49992 2.66667 8.49992H13.3333C13.7015 8.49992 14 8.20144 14 7.83325V6.49992C14 6.13173 13.7015 5.83325 13.3333 5.83325Z" stroke="#F79D5B" stroke-linecap="round" stroke-linejoin="round"/>
<path d="M8 5.83325V14.4999" stroke="#F79D5B" stroke-linecap="round" stroke-linejoin="round"/>
<path d="M12.6668 8.5V13.1667C12.6668 13.5203 12.5264 13.8594 12.2763 14.1095C12.0263 14.3595 11.6871 14.5 11.3335 14.5H4.66683C4.31321 14.5 3.97407 14.3595 3.72402 14.1095C3.47397 13.8594 3.3335 13.5203 3.3335 13.1667V8.5" stroke="#F79D5B" stroke-linecap="round" stroke-linejoin="round"/>
<path d="M5.00016 5.83338C4.55814 5.83338 4.13421 5.65779 3.82165 5.34523C3.50909 5.03267 3.3335 4.60874 3.3335 4.16671C3.3335 3.72469 3.50909 3.30076 3.82165 2.9882C4.13421 2.67564 4.55814 2.50005 5.00016 2.50005C5.64329 2.48884 6.27351 2.80089 6.80865 3.39549C7.34379 3.99009 7.75901 4.83965 8.00016 5.83338C8.24131 4.83965 8.65653 3.99009 9.19167 3.39549C9.72681 2.80089 10.357 2.48884 11.0002 2.50005C11.4422 2.50005 11.8661 2.67564 12.1787 2.9882C12.4912 3.30076 12.6668 3.72469 12.6668 4.16671C12.6668 4.60874 12.4912 5.03267 12.1787 5.34523C11.8661 5.65779 11.4422 5.83338 11.0002 5.83338" stroke="#F79D5B" stroke-linecap="round" stroke-linejoin="round"/>
</g>
<defs>
<clipPath id="clip0_4_208">
<rect width="16" height="16" fill="white" transform="translate(0 0.5)"/>
</clipPath>
</defs>
</svg>

<svg xmlns="http://www.w3.org/2000/svg" width="16" height="17" fill="none"><g stroke="#F79D5B" stroke-linecap="round" stroke-linejoin="round" clip-path="url(#a)"><path d="M13.333 5.833H2.667A.667.667 0 0 0 2 6.5v1.333c0 .368.298.667.667.667h10.666A.667.667 0 0 0 14 7.833V6.5a.667.667 0 0 0-.667-.667ZM8 5.833V14.5"/><path d="M12.667 8.5v4.667a1.333 1.333 0 0 1-1.333 1.333H4.667a1.334 1.334 0 0 1-1.333-1.333V8.5M5 5.833A1.667 1.667 0 1 1 5 2.5c.643-.011 1.274.3 1.809.895.535.595.95 1.445 1.191 2.438.241-.993.657-1.843 1.192-2.438.535-.594 1.165-.906 1.808-.895a1.667 1.667 0 0 1 0 3.333"/></g><defs><clipPath id="a"><path fill="#fff" d="M0 .5h16v16H0z"/></clipPath></defs></svg>
